X: 1793
T: Sordum Sarı Çiçeğe
C: ?
O: Turkey
F: http://compmusic.upf.edu/node/140
N: segah--ilahi--sofyan--sordum_sari--
N: makam= segah
N: form= ilahi
N: usul= sofyan = 4/4
M: 4/4
L: 1/16
K: C _1/4B _1/4e ^f 
Q: 1/4=60
%%MIDI tuningsystem comma53
B2Bc d2d2 edef d4  | g2g2 f2e2 d2de dcB2  | \
w:  Sor dum  *  sa rı  çi *  çe *  ğe   |  an nen  ba ban  var  mı *  dır    | 
B2Bc d2d2 edef d4  | 
w:  Sor dum  *  sa rı  çi *  çe *  ğe   | 
g2g2 f2e2 d2de dcB2  | z2ee e2c2 d2d2 dcB2  | \
w:  an nen  ba ban  var  mı *  dır    |  Çi çek  ey dür  Der viş  Ba *  ba   | 
c2c2 B2^A2 B2B2 B4  | 
w:  an nem  ba bam  top rak tır    | 
z2ee e2c2 d2d2 dcB2  | c2c2 B2^A2 B2B2 B4  | \
w:  Çi çek  ey dür  Der viş  Ba *  ba   |  an nem  ba bam  top rak tır    | 
B2dc B2c2 d4 d4  | 
w:  Hak  lâ *  *  i lâ he   | 
g4 f2e2 d4 g2g2  | z2gf e2g2 f2e2 d2c2  | \
w:  il lal *  lah  Al lah   |  lâ *  *  i lâ *  he   | 
e3d c2cB B8  | 
w:  il *  lal *  *  lah   | 
B2dc B2c2 d4 d4  | g4 f2e2 d4 g2g2  | \
w:  Hak  lâ *  *  i lâ he   |  il lal *  lah  Al lah   | 
z2gf e2g2 f2e2 d2c2  | 
w:  lâ *  *  i lâ *  he   | 
e3d c2cB B8  | B2Bc d2d2 edef d4  | g2g2 f2e2 d2de dcB2  | 
w:  il *  lal *  *  lah   |  Sor dum  *  sa rı  çi *  çe *  ğe   |  an nen  ba ban  var  mı *  dır    | 
B2Bc d2d2 edef d4  | g2g2 f2e2 d2de dcB2  | \
w:  Sor dum  *  sa rı  çi *  çe *  ğe   |  an nen  ba ban  var  mı *  dır    | 
z2ee e2c2 d2d2 dcB2  | 
w:  Çi çek  ey dür  Der viş  Ba *  ba   | 
c2c2 B2^A2 B2B2 B4  | z2ee e2c2 d2d2 dcB2  | \
w:  an nem  ba bam  top rak tır    |  Çi çek  ey dür  Der viş  Ba *  ba   | 
c2c2 B2^A2 B2B2 B4  | 
w:  an nem  ba bam  top rak tır    | 
B2dc B2c2 d4 d4  | g4 f2e2 d4 g2g2  | \
w:  Hak  lâ *  *  i lâ he   |  il lal *  lah  Al lah   | 
z2gf e2g2 f2e2 d2c2  | 
w:  lâ *  *  i lâ *  he   | 
e3d c2cB B8  | B2dc B2c2 d4 d4  | g4 f2e2 d4 g2g2  | \
w:  il *  lal *  *  lah   |  Hak  lâ *  *  i lâ he   |  il lal *  lah  Al lah   | 
z2gf e2g2 f2e2 d2c2  | 
w:  lâ *  *  i lâ *  he   | 
e3d c2cB B8  | |


